production/_assets/svg/icon-warning.svg

<svg xmlns="http://www.w3.org/2000/svg" width="14" height="14" viewBox="0 0 14 14">
  <g fill="#FF8A24" fill-rule="evenodd">
    <path d="M12.5,7 C12.5,3.96243388 10.0375661,1.5 7,1.5 C3.96243388,1.5 1.5,3.96243388 1.5,7 C1.5,10.0375661 3.96243388,12.5 7,12.5 C10.0375661,12.5 12.5,10.0375661 12.5,7 Z M0,7 C0,3.13400675 3.13400675,0 7,0 C10.8659932,0 14,3.13400675 14,7 C14,10.8659932 10.8659932,14 7,14 C3.13400675,14 0,10.8659932 0,7 Z"/>
    <path d="M6,3.49769878 C6,3.22282734 6.21403503,3 6.50468445,3 L7.49531555,3 C7.77404508,3 8,3.21484375 8,3.49769878 L8,7.50230122 C8,7.77717266 7.78596497,8 7.49531555,8 L6.50468445,8 C6.22595492,8 6,7.78515625 6,7.50230122 L6,3.49769878 Z M6,9.50468445 C6,9.22595492 6.21403503,9 6.50468445,9 L7.49531555,9 C7.77404508,9 8,9.21403503 8,9.50468445 L8,10.4953156 C8,10.7740451 7.78596497,11 7.49531555,11 L6.50468445,11 C6.22595492,11 6,10.785965 6,10.4953156 L6,9.50468445 Z"/>
  </g>
</svg>

<svg xmlns="http://www.w3.org/2000/svg" viewBox="0 0 14 14" enable-background="new 0 0 14 14"><path d="M12.5,7c0-3-2.5-5.5-5.5-5.5S1.5,4,1.5,7S4,12.5,7,12.5S12.5,10,12.5,7z M0,7c0-3.9,3.1-7,7-7s7,3.1,7,7s-3.1,7-7,7
		S0,10.9,0,7z"/><path d="m6 3.5c0-.3.2-.5.5-.5h1c.3 0 .5.2.5.5v4c0 .3-.2.5-.5.5h-1c-.3 0-.5-.2-.5-.5v-4m0 6c0-.3.2-.5.5-.5h1c.3 0 .5.2.5.5v1c0 .3-.2.5-.5.5h-1c-.3 0-.5-.2-.5-.5v-1"/></svg>
